X: 318
T:Oyster Girl. JaW.317
M:6/8
Q:120
S:James Winder Ms, Lancashire, 1835-41
R:Jig
O:England
A:Wyresdale,Lancashire
H:1/8
Z:vmp.Chris Partington, Aug 2004
K:D
a|aba f2d|e2d A2A|ded f2d|a2g e2a|!
aba f2d|d'2b g2b|bgf afe|d3-d2:|!
|:f|f2ff2f|f2(f d'2g|eee a2g|g3 f2a|!
aba f2d|d2BG2g|baf age|d2zz2:|!
|:z|a2g d2d|e2c A2A|ded f2d|a2g e2a|!
aba f2d|d'2b g2b|baf age|d2zz2:|]
